Newaita-dark/apps/128/open-raw.svg

<?xml version="1.0" encoding="UTF-8"?>
<svg xmlns="http://www.w3.org/2000/svg" xmlns:xlink="http://www.w3.org/1999/xlink" width="128pt" height="128pt" viewBox="0 0 128 128" version="1.1">
<defs>
<radialGradient id="radial0" gradientUnits="userSpaceOnUse" cx="450.908936" cy="189.579361" fx="450.908936" fy="189.579361" r="21.166656" gradientTransform="matrix(0.000000696681,-0.31253,-0.562554,-0.000000406154,174.123479,254.381318)">
<stop offset="0" style="stop-color:rgb(0%,0%,0%);stop-opacity:0.313725;"/>
<stop offset="0.222222" style="stop-color:rgb(0%,0%,0%);stop-opacity:0.27451;"/>
<stop offset="1" style="stop-color:rgb(0%,0%,0%);stop-opacity:0;"/>
</radialGradient>
<radialGradient id="radial1" gradientUnits="userSpaceOnUse" cx="450.908936" cy="189.579361" fx="450.908936" fy="189.579361" r="21.166656" gradientTransform="matrix(-0.000000696681,0.31253,0.562554,0.000000406154,-47.111346,-30.109928)">
<stop offset="0" style="stop-color:rgb(0%,0%,0%);stop-opacity:0.313725;"/>
<stop offset="0.222222" style="stop-color:rgb(0%,0%,0%);stop-opacity:0.27451;"/>
<stop offset="1" style="stop-color:rgb(0%,0%,0%);stop-opacity:0;"/>
</radialGradient>
<radialGradient id="radial2" gradientUnits="userSpaceOnUse" cx="450.908936" cy="189.579361" fx="450.908936" fy="189.579361" r="21.166656" gradientTransform="matrix(-0.000000696681,-0.31253,0.562554,-0.000000406154,-47.111346,254.381318)">
<stop offset="0" style="stop-color:rgb(0%,0%,0%);stop-opacity:0.313725;"/>
<stop offset="0.222222" style="stop-color:rgb(0%,0%,0%);stop-opacity:0.27451;"/>
<stop offset="1" style="stop-color:rgb(0%,0%,0%);stop-opacity:0;"/>
</radialGradient>
<radialGradient id="radial3" gradientUnits="userSpaceOnUse" cx="450.908936" cy="189.579361" fx="450.908936" fy="189.579361" r="21.166656" gradientTransform="matrix(0.000000696681,0.31253,-0.562554,0.000000406154,174.123471,-30.10993)">
<stop offset="0" style="stop-color:rgb(0%,0%,0%);stop-opacity:0.313725;"/>
<stop offset="0.222222" style="stop-color:rgb(0%,0%,0%);stop-opacity:0.27451;"/>
<stop offset="1" style="stop-color:rgb(0%,0%,0%);stop-opacity:0;"/>
</radialGradient>
<linearGradient id="linear0" gradientUnits="userSpaceOnUse" x1="255.323059" y1="233.5" x2="255.323044" y2="254.666656" gradientTransform="matrix(0.0534402,0,0,0.250024,49.861545,53.755135)">
<stop offset="0" style="stop-color:rgb(0%,0%,0%);stop-opacity:0.27451;"/>
<stop offset="1" style="stop-color:rgb(0%,0%,0%);stop-opacity:0;"/>
</linearGradient>
<linearGradient id="linear1" gradientUnits="userSpaceOnUse" x1="254" y1="-168.666672" x2="254" y2="233.5" gradientTransform="matrix(0.250024,0,0,0.250024,0,53.755133)">
<stop offset="0" style="stop-color:rgb(38.039216%,38.039216%,38.039216%);stop-opacity:1;"/>
<stop offset="1" style="stop-color:rgb(25.882353%,25.882353%,25.882353%);stop-opacity:1;"/>
</linearGradient>
<linearGradient id="linear2" gradientUnits="userSpaceOnUse" x1="254" y1="-31.083334" x2="254" y2="95.916664" gradientTransform="matrix(0.708401,0,0,-0.708401,-116.427812,84.824082)">
<stop offset="0" style="stop-color:rgb(38.039216%,38.039216%,38.039216%);stop-opacity:1;"/>
<stop offset="1" style="stop-color:rgb(25.882353%,25.882353%,25.882353%);stop-opacity:1;"/>
</linearGradient>
<linearGradient id="linear3" gradientUnits="userSpaceOnUse" x1="254" y1="-136.916656" x2="254" y2="201.75" gradientTransform="matrix(3.779528,0,0,3.779528,-0.000000262818,812.59845)">
<stop offset="0" style="stop-color:rgb(39.215686%,70.980392%,96.470588%);stop-opacity:1;"/>
<stop offset="1" style="stop-color:rgb(25.882353%,64.705882%,96.078431%);stop-opacity:1;"/>
</linearGradient>
<linearGradient id="linear4" gradientUnits="userSpaceOnUse" x1="254" y1="-136.916656" x2="254" y2="201.750015" gradientTransform="matrix(3.779528,0,0,3.779528,0.0000150706,812.598389)">
<stop offset="0" style="stop-color:rgb(58.431373%,45.882353%,80.392157%);stop-opacity:1;"/>
<stop offset="1" style="stop-color:rgb(49.411765%,34.117647%,76.078431%);stop-opacity:1;"/>
</linearGradient>
<linearGradient id="linear5" gradientUnits="userSpaceOnUse" x1="254" y1="-136.916656" x2="254" y2="201.75" gradientTransform="matrix(3.779528,0,0,3.779528,0.0000122325,812.598389)">
<stop offset="0" style="stop-color:rgb(89.803922%,45.098039%,45.098039%);stop-opacity:1;"/>
<stop offset="1" style="stop-color:rgb(93.72549%,32.54902%,31.372549%);stop-opacity:1;"/>
</linearGradient>
<linearGradient id="linear6" gradientUnits="userSpaceOnUse" x1="254" y1="-136.916656" x2="254" y2="201.75" gradientTransform="matrix(3.779528,0,0,3.779528,0.0000114517,812.598389)">
<stop offset="0" style="stop-color:rgb(100%,54.117647%,39.607843%);stop-opacity:1;"/>
<stop offset="1" style="stop-color:rgb(100%,43.921569%,26.27451%);stop-opacity:1;"/>
</linearGradient>
<linearGradient id="linear7" gradientUnits="userSpaceOnUse" x1="254" y1="-136.916656" x2="254" y2="201.75" gradientTransform="matrix(3.779528,0,0,3.779528,0.00000924297,812.598389)">
<stop offset="0" style="stop-color:rgb(100%,71.764706%,30.196078%);stop-opacity:1;"/>
<stop offset="1" style="stop-color:rgb(100%,65.490196%,14.901961%);stop-opacity:1;"/>
</linearGradient>
<linearGradient id="linear8" gradientUnits="userSpaceOnUse" x1="254" y1="-136.916656" x2="254" y2="201.750015" gradientTransform="matrix(3.779528,0,0,3.779528,0.0000140149,812.598389)">
<stop offset="0" style="stop-color:rgb(30.196078%,71.372549%,67.45098%);stop-opacity:1;"/>
<stop offset="1" style="stop-color:rgb(14.901961%,65.098039%,60.392157%);stop-opacity:1;"/>
</linearGradient>
<linearGradient id="linear9" gradientUnits="userSpaceOnUse" x1="254" y1="-73.416664" x2="254" y2="138.25" >
<stop offset="0" style="stop-color:rgb(38.039216%,38.039216%,38.039216%);stop-opacity:1;"/>
<stop offset="1" style="stop-color:rgb(25.882353%,25.882353%,25.882353%);stop-opacity:1;"/>
</linearGradient>
</defs>
<g id="surface1">
<path style=" stroke:none;fill-rule:nonzero;fill:url(#radial0);" d="M 68.796875 112.136719 L 79.382812 112.136719 L 79.382812 106.84375 L 68.796875 106.84375 Z M 68.796875 112.136719 "/>
<path style=" stroke:none;fill-rule:nonzero;fill:url(#radial1);" d="M 58.214844 112.136719 L 47.628906 112.136719 L 47.628906 117.429688 L 58.214844 117.429688 Z M 58.214844 112.136719 "/>
<path style=" stroke:none;fill-rule:nonzero;fill:url(#radial2);" d="M 58.214844 112.136719 L 47.628906 112.136719 L 47.628906 106.84375 L 58.214844 106.84375 Z M 58.214844 112.136719 "/>
<path style=" stroke:none;fill-rule:nonzero;fill:url(#radial3);" d="M 68.796875 112.136719 L 79.382812 112.136719 L 79.382812 117.429688 L 68.796875 117.429688 Z M 68.796875 112.136719 "/>
<path style=" stroke:none;fill-rule:nonzero;fill:url(#linear0);" d="M 58.214844 110.8125 L 68.796875 110.8125 L 68.796875 117.429688 L 58.214844 117.429688 Z M 58.214844 110.8125 "/>
<path style=" stroke:none;fill-rule:nonzero;fill:url(#linear1);" d="M 63.507812 11.585938 C 91.273438 11.585938 113.78125 34.09375 113.78125 61.859375 C 113.78125 89.625 91.273438 112.136719 63.507812 112.136719 C 35.738281 112.136719 13.230469 89.625 13.230469 61.859375 C 13.230469 34.09375 35.738281 11.585938 63.507812 11.585938 Z M 63.507812 11.585938 "/>
<path style=" stroke:none;fill-rule:nonzero;fill:url(#linear2);" d="M 63.507812 98.90625 C 86.886719 98.90625 105.84375 82.320312 105.84375 61.859375 L 105.84375 59.214844 C 105.84375 38.753906 86.886719 22.167969 63.507812 22.167969 C 40.125 22.167969 21.167969 38.753906 21.167969 59.214844 L 21.167969 61.859375 C 21.167969 82.320312 40.125 98.90625 63.507812 98.90625 Z M 63.507812 98.90625 "/>
<path style=" stroke:none;fill-rule:nonzero;fill:rgb(0%,0%,0%);fill-opacity:0.196078;" d="M 63.507812 112.136719 C 35.652344 112.136719 13.230469 89.710938 13.230469 61.859375 C 13.230469 61.695312 13.230469 61.53125 13.234375 61.367188 C 13.496094 88.992188 35.816406 111.152344 63.507812 111.152344 C 91.195312 111.152344 113.515625 88.992188 113.777344 61.367188 C 113.78125 61.53125 113.78125 61.695312 113.78125 61.859375 C 113.78125 89.710938 91.359375 112.136719 63.507812 112.136719 Z M 63.507812 112.136719 "/>
<path style=" stroke:none;fill-rule:nonzero;fill:rgb(100%,100%,100%);fill-opacity:0.392157;" d="M 63.507812 11.585938 C 35.652344 11.585938 13.230469 34.007812 13.230469 61.859375 C 13.230469 62.023438 13.230469 62.1875 13.234375 62.351562 C 13.496094 34.726562 35.816406 12.570312 63.507812 12.570312 C 91.195312 12.570312 113.515625 34.726562 113.777344 62.351562 C 113.78125 62.1875 113.78125 62.023438 113.78125 61.859375 C 113.78125 34.007812 91.359375 11.585938 63.507812 11.585938 Z M 63.507812 11.585938 "/>
<path style="fill-rule:nonzero;fill:url(#linear3);stroke-width:11.338583;stroke-linecap:round;stroke-linejoin:miter;stroke:rgb(12.941177%,12.941177%,12.941177%);stroke-opacity:1;stroke-miterlimit:4;" d="M 429.466885 576.145799 C 360.319941 678.419502 319.989144 801.891969 319.989144 935.107601 C 319.989144 1289.699742 605.434342 1575.14494 960.026483 1575.14494 C 975.2022 1575.14494 990.318867 1574.554445 1005.258386 1573.550604 Z M 429.466885 576.145799 " transform="matrix(0.0661521,0,0,0.0661521,0,0)"/>
<path style="fill-rule:nonzero;fill:url(#linear4);stroke-width:11.338583;stroke-linecap:round;stroke-linejoin:miter;stroke:rgb(12.941177%,12.941177%,12.941177%);stroke-opacity:1;stroke-miterlimit:4;" d="M 960.026483 295.129312 C 605.434342 295.129312 319.989144 580.57451 319.989144 935.107601 C 319.989144 1068.382283 360.319941 1191.85475 429.466885 1294.069404 L 1005.258386 296.664599 C 990.318867 295.660758 975.2022 295.129312 960.026483 295.129312 Z M 960.026483 295.129312 " transform="matrix(0.0661521,0,0,0.0661521,0,0)"/>
<path style="fill-rule:nonzero;fill:url(#linear5);stroke-width:11.338583;stroke-linecap:round;stroke-linejoin:miter;stroke:rgb(12.941177%,12.941177%,12.941177%);stroke-opacity:1;stroke-miterlimit:4;" d="M 960.026483 295.129312 C 705.99561 295.129312 487.453476 441.631078 383.939734 655.094956 L 1536.054182 655.094956 C 1432.54044 441.631078 1213.998306 295.129312 960.026483 295.129312 Z M 960.026483 295.129312 " transform="matrix(0.0661521,0,0,0.0661521,0,0)"/>
<path style="fill-rule:nonzero;fill:url(#linear6);stroke-width:11.338583;stroke-linecap:round;stroke-linejoin:miter;stroke:rgb(12.941177%,12.941177%,12.941177%);stroke-opacity:1;stroke-miterlimit:4;" d="M 960.026483 295.129312 C 944.791716 295.129312 929.675049 295.660758 914.73553 296.664599 L 1490.586081 1294.069404 C 1559.673975 1191.85475 1600.004772 1068.382283 1600.004772 935.107601 C 1600.004772 580.57451 1314.559574 295.129312 960.026483 295.129312 Z M 960.026483 295.129312 " transform="matrix(0.0661521,0,0,0.0661521,0,0)"/>
<path style="fill-rule:nonzero;fill:url(#linear7);stroke-width:11.338583;stroke-linecap:round;stroke-linejoin:miter;stroke:rgb(12.941177%,12.941177%,12.941177%);stroke-opacity:1;stroke-miterlimit:4;" d="M 1490.586081 576.145799 L 960.026483 1495.132891 L 1005.258386 1573.550604 C 1338.533664 1550.462256 1600.004772 1274.464976 1600.004772 935.107601 C 1600.004772 801.891969 1559.673975 678.419502 1490.586081 576.145799 Z M 1490.586081 576.145799 " transform="matrix(0.0661521,0,0,0.0661521,0,0)"/>
<path style="fill-rule:nonzero;fill:url(#linear8);stroke-width:11.338583;stroke-linecap:round;stroke-linejoin:miter;stroke:rgb(12.941177%,12.941177%,12.941177%);stroke-opacity:1;stroke-miterlimit:4;" d="M 798.349 1215.120246 L 1005.258386 1573.550604 C 1239.80293 1557.311996 1438.740636 1415.829436 1536.054182 1215.120246 Z M 798.349 1215.120246 " transform="matrix(0.0661521,0,0,0.0661521,0,0)"/>
<path style="fill-rule:nonzero;fill:url(#linear9);stroke-width:3;stroke-linecap:round;stroke-linejoin:round;stroke:rgb(12.941177%,12.941177%,12.941177%);stroke-opacity:1;stroke-miterlimit:4;" d="M 254.006994 -31.080063 C 289.066146 -31.080063 317.50093 -2.660902 317.50093 32.413873 C 317.50093 67.488649 289.066146 95.923433 254.006994 95.923433 C 218.932218 95.923433 190.497433 67.488649 190.497433 32.413873 C 190.497433 -2.660902 218.932218 -31.080063 254.006994 -31.080063 Z M 254.006994 -31.080063 " transform="matrix(0.250024,0,0,0.250024,0,53.755133)"/>
<path style=" stroke:none;fill-rule:nonzero;fill:rgb(12.941177%,12.941177%,12.941177%);fill-opacity:1;" d="M 63.507812 11.210938 C 35.453125 11.210938 12.855469 33.804688 12.855469 61.859375 C 12.855469 89.914062 35.453125 112.511719 63.507812 112.511719 C 91.558594 112.511719 114.15625 89.914062 114.15625 61.859375 C 114.15625 33.804688 91.558594 11.210938 63.507812 11.210938 Z M 63.507812 11.960938 C 91.15625 11.960938 113.40625 34.207031 113.40625 61.859375 C 113.40625 89.511719 91.15625 111.761719 63.507812 111.761719 C 35.855469 111.761719 13.605469 89.511719 13.605469 61.859375 C 13.605469 34.207031 35.855469 11.960938 63.507812 11.960938 Z M 63.507812 11.960938 "/>
<path style=" stroke:none;fill-rule:nonzero;fill:rgb(100%,100%,100%);fill-opacity:0.196078;" d="M 54.484375 52.4375 C 57.585938 49.339844 61.355469 48.082031 62.90625 49.632812 C 64.457031 51.183594 63.199219 54.953125 60.097656 58.050781 C 57 61.152344 53.230469 62.40625 51.679688 60.859375 C 50.128906 59.308594 51.386719 55.539062 54.484375 52.4375 Z M 54.484375 52.4375 "/>
</g>
</svg>

<svg xmlns="http://www.w3.org/2000/svg" width="128pt" height="128pt" viewBox="0 0 128 128"><defs><radialGradient id="a" gradientUnits="userSpaceOnUse" cx="450.909" cy="189.579" fx="450.909" fy="189.579" r="21.167" gradientTransform="matrix(0 -.31253 -.56255 0 174.123 254.381)"><stop offset="0" stop-opacity=".314"/><stop offset=".222" stop-opacity=".275"/><stop offset="1" stop-opacity="0"/></radialGradient><radialGradient id="b" gradientUnits="userSpaceOnUse" cx="450.909" cy="189.579" fx="450.909" fy="189.579" r="21.167" gradientTransform="matrix(0 .31253 .56255 0 -47.111 -30.11)"><stop offset="0" stop-opacity=".314"/><stop offset=".222" stop-opacity=".275"/><stop offset="1" stop-opacity="0"/></radialGradient><radialGradient id="c" gradientUnits="userSpaceOnUse" cx="450.909" cy="189.579" fx="450.909" fy="189.579" r="21.167" gradientTransform="matrix(0 -.31253 .56255 0 -47.111 254.381)"><stop offset="0" stop-opacity=".314"/><stop offset=".222" stop-opacity=".275"/><stop offset="1" stop-opacity="0"/></radialGradient><radialGradient id="d" gradientUnits="userSpaceOnUse" cx="450.909" cy="189.579" fx="450.909" fy="189.579" r="21.167" gradientTransform="matrix(0 .31253 -.56255 0 174.123 -30.11)"><stop offset="0" stop-opacity=".314"/><stop offset=".222" stop-opacity=".275"/><stop offset="1" stop-opacity="0"/></radialGradient><linearGradient id="e" gradientUnits="userSpaceOnUse" x1="255.323" y1="233.5" x2="255.323" y2="254.667" gradientTransform="matrix(.05344 0 0 .25002 49.862 53.755)"><stop offset="0" stop-opacity=".275"/><stop offset="1" stop-opacity="0"/></linearGradient><linearGradient id="f" gradientUnits="userSpaceOnUse" x1="254" y1="-168.667" x2="254" y2="233.5" gradientTransform="matrix(.25002 0 0 .25002 0 53.755)"><stop offset="0" stop-color="#616161"/><stop offset="1" stop-color="#424242"/></linearGradient><linearGradient id="g" gradientUnits="userSpaceOnUse" x1="254" y1="-31.083" x2="254" y2="95.917" gradientTransform="matrix(.7084 0 0 -.7084 -116.428 84.824)"><stop offset="0" stop-color="#616161"/><stop offset="1" stop-color="#424242"/></linearGradient><linearGradient id="h" gradientUnits="userSpaceOnUse" x1="254" y1="-136.917" x2="254" y2="201.75" gradientTransform="matrix(3.77953 0 0 3.77953 0 812.598)"><stop offset="0" stop-color="#64b5f6"/><stop offset="1" stop-color="#42a5f5"/></linearGradient><linearGradient id="i" gradientUnits="userSpaceOnUse" x1="254" y1="-136.917" x2="254" y2="201.75" gradientTransform="matrix(3.77953 0 0 3.77953 0 812.598)"><stop offset="0" stop-color="#9575cd"/><stop offset="1" stop-color="#7e57c2"/></linearGradient><linearGradient id="j" gradientUnits="userSpaceOnUse" x1="254" y1="-136.917" x2="254" y2="201.75" gradientTransform="matrix(3.77953 0 0 3.77953 0 812.598)"><stop offset="0" stop-color="#e57373"/><stop offset="1" stop-color="#ef5350"/></linearGradient><linearGradient id="k" gradientUnits="userSpaceOnUse" x1="254" y1="-136.917" x2="254" y2="201.75" gradientTransform="matrix(3.77953 0 0 3.77953 0 812.598)"><stop offset="0" stop-color="#ff8a65"/><stop offset="1" stop-color="#ff7043"/></linearGradient><linearGradient id="l" gradientUnits="userSpaceOnUse" x1="254" y1="-136.917" x2="254" y2="201.75" gradientTransform="matrix(3.77953 0 0 3.77953 0 812.598)"><stop offset="0" stop-color="#ffb74d"/><stop offset="1" stop-color="#ffa726"/></linearGradient><linearGradient id="m" gradientUnits="userSpaceOnUse" x1="254" y1="-136.917" x2="254" y2="201.75" gradientTransform="matrix(3.77953 0 0 3.77953 0 812.598)"><stop offset="0" stop-color="#4db6ac"/><stop offset="1" stop-color="#26a69a"/></linearGradient><linearGradient id="n" gradientUnits="userSpaceOnUse" x1="254" y1="-73.417" x2="254" y2="138.25"><stop offset="0" stop-color="#616161"/><stop offset="1" stop-color="#424242"/></linearGradient></defs><path d="M68.797 112.137h10.586v-5.293H68.797zm0 0" fill="url(#a)"/><path d="M58.215 112.137H47.629v5.293h10.586zm0 0" fill="url(#b)"/><path d="M58.215 112.137H47.629v-5.293h10.586zm0 0" fill="url(#c)"/><path d="M68.797 112.137h10.586v5.293H68.797zm0 0" fill="url(#d)"/><path d="M58.215 110.813h10.582v6.617H58.215zm0 0" fill="url(#e)"/><path d="M63.508 11.586c27.765 0 50.273 22.508 50.273 50.273 0 27.766-22.508 50.278-50.273 50.278-27.77 0-50.278-22.512-50.278-50.278 0-27.765 22.508-50.273 50.278-50.273zm0 0" fill="url(#f)"/><path d="M63.508 98.906c23.379 0 42.336-16.586 42.336-37.047v-2.644c0-20.461-18.957-37.047-42.336-37.047-23.383 0-42.34 16.586-42.34 37.047v2.644c0 20.461 18.957 37.047 42.34 37.047zm0 0" fill="url(#g)"/><path d="M63.508 112.137c-27.856 0-50.278-22.426-50.278-50.278 0-.164 0-.328.004-.492.262 27.625 22.582 49.785 50.274 49.785 27.687 0 50.008-22.16 50.27-49.785.003.164.003.328.003.492 0 27.852-22.422 50.278-50.273 50.278zm0 0" fill-opacity=".196"/><path d="M63.508 11.586c-27.856 0-50.278 22.422-50.278 50.273 0 .164 0 .328.004.493.262-27.625 22.582-49.782 50.274-49.782 27.687 0 50.008 22.157 50.27 49.782.003-.164.003-.329.003-.493 0-27.851-22.422-50.273-50.273-50.273zm0 0" fill="#fff" fill-opacity=".392"/><path d="M429.467 576.146C360.32 678.42 319.989 801.892 319.989 935.108c0 354.592 285.445 640.037 640.037 640.037 15.176 0 30.293-.59 45.232-1.594zm0 0" transform="scale(.06615)" fill="url(#h)" stroke-width="11.339" stroke-linecap="round" stroke="#212121"/><path d="M960.026 295.13c-354.592 0-640.037 285.445-640.037 639.978 0 133.274 40.33 256.747 109.478 358.961l575.791-997.404a675.33 675.33 0 0 0-45.232-1.536zm0 0" transform="scale(.06615)" fill="url(#i)" stroke-width="11.339" stroke-linecap="round" stroke="#212121"/><path d="M960.026 295.13c-254.03 0-472.573 146.501-576.086 359.965h1152.114c-103.514-213.464-322.056-359.966-576.028-359.966zm0 0" transform="scale(.06615)" fill="url(#j)" stroke-width="11.339" stroke-linecap="round" stroke="#212121"/><path d="M960.026 295.13c-15.234 0-30.351.53-45.29 1.535l575.85 997.404c69.088-102.214 109.419-225.687 109.419-358.961 0-354.533-285.445-639.979-639.979-639.979zm0 0" transform="scale(.06615)" fill="url(#k)" stroke-width="11.339" stroke-linecap="round" stroke="#212121"/><path d="M1490.586 576.146l-530.56 918.987 45.232 78.418c333.276-23.089 594.747-299.086 594.747-638.443 0-133.216-40.331-256.688-109.419-358.962zm0 0" transform="scale(.06615)" fill="url(#l)" stroke-width="11.339" stroke-linecap="round" stroke="#212121"/><path d="M798.349 1215.12l206.91 358.43c234.544-16.238 433.482-157.72 530.795-358.43zm0 0" transform="scale(.06615)" fill="url(#m)" stroke-width="11.339" stroke-linecap="round" stroke="#212121"/><path d="M254.007-31.08c35.06 0 63.494 28.42 63.494 63.494 0 35.075-28.435 63.51-63.494 63.51-35.075 0-63.51-28.435-63.51-63.51s28.435-63.494 63.51-63.494zm0 0" transform="matrix(.25002 0 0 .25002 0 53.755)" fill="url(#n)" stroke-width="3" stroke-linecap="round" stroke-linejoin="round" stroke="#212121"/><path d="M63.508 11.21c-28.055 0-50.653 22.595-50.653 50.65 0 28.054 22.598 50.652 50.653 50.652 28.05 0 50.648-22.598 50.648-50.653 0-28.054-22.597-50.648-50.648-50.648zm0 .75c27.648 0 49.898 22.247 49.898 49.9 0 27.652-22.25 49.902-49.898 49.902-27.653 0-49.903-22.25-49.903-49.903 0-27.652 22.25-49.898 49.903-49.898zm0 0" fill="#212121"/><path d="M54.484 52.438c3.102-3.098 6.871-4.356 8.422-2.805 1.551 1.55.293 5.32-2.808 8.418-3.098 3.101-6.868 4.355-8.418 2.808-1.551-1.55-.293-5.32 2.804-8.422zm0 0" fill="#fff" fill-opacity=".196"/></svg>
